src/Assets/folder.svg

<svg width="26" height="25" viewBox="0 0 26 25" fill="none" xmlns="http://www.w3.org/2000/svg">
<path d="M23.3125 11.5408V17.2952C23.3125 20.3374 20.8375 22.8124 17.7953 22.8124H8.20469C5.1625 22.8124 2.6875 20.3374 2.6875 17.2952V9.85986H23.0444C23.1991 10.3239 23.2816 10.7983 23.3022 11.3036C23.3125 11.3758 23.3125 11.4686 23.3125 11.5408Z" fill="#D99E20"/>
<path opacity="0.4" d="M23.0444 9.86H2.6875V6.74563C2.6875 4.22938 4.72938 2.1875 7.24563 2.1875H9.64844C11.3294 2.1875 11.8553 2.73406 12.5256 3.63125L13.9694 5.54938C14.2891 5.97219 14.3303 6.03406 14.9284 6.03406H17.8056C20.2497 6.02375 22.3328 7.6325 23.0444 9.86Z" fill="#D99E20"/>
</svg>

<svg xmlns="http://www.w3.org/2000/svg" width="26" height="25" fill="none"><path fill="#D99E20" d="M23.313 11.54v5.755a5.523 5.523 0 0 1-5.518 5.517h-9.59a5.523 5.523 0 0 1-5.517-5.517V9.86h20.356c.155.464.238.938.258 1.444.01.072.01.165.01.237"/><path fill="#D99E20" d="M23.044 9.86H2.688V6.746a4.56 4.56 0 0 1 4.558-4.558h2.402c1.681 0 2.207.546 2.878 1.443l1.443 1.918c.32.423.361.485.96.485h2.877c2.444-.01 4.527 1.599 5.238 3.826" opacity=".4"/></svg>
